X:122
T:score206
L:1/8
Q:1/4=96
M:3/4
I:linebreak $
K:G
 d4 cB | ^G4 Ac | =g2 z2 g2 | g6 | G4 FE |$ ^C4 DF | e2 z2 e2 | e6 | d4 cB | ^G4 Ac |$ g2 z2 g2 | %11
 g6 | G4 FE | ^C4 DF | e2 z2 d2 |$ G2 z2 z2 |] %16
